src/assets/svg-icons/electricity.svg

<svg width="21" height="35" viewBox="0 0 21 35" fill="none" xmlns="http://www.w3.org/2000/svg">
<path d="M20.4122 12.9047C20.2619 12.6886 20.0228 12.5511 19.7604 12.53H12.9659L19.6464 1.09166C19.7954 0.864059 19.7954 0.569776 19.6464 0.342171C19.5011 0.133432 19.2652 0.00633936 19.0109 2.9242e-08H9.91897C9.64195 -7.63483e-05 9.38646 0.149471 9.25089 0.391053L0.566235 18.6402C0.431047 18.8601 0.431047 19.1372 0.566235 19.3571C0.686911 19.5803 0.934451 19.7041 1.18543 19.6667H8.02885L3.14069 34.0868C3.02888 34.4062 3.16735 34.7595 3.46659 34.9177C3.58819 34.9769 3.72254 35.005 3.85765 34.9992C4.07647 34.9921 4.28513 34.9052 4.44423 34.7548L20.4122 13.6869C20.5758 13.4518 20.5758 13.1398 20.4122 12.9047Z" fill="black"/>
</svg>

<svg xmlns="http://www.w3.org/2000/svg" width="21" height="35" fill="none" viewBox="0 0 21 35"><path fill="#000" d="M20.412 12.905a.88.88 0 0 0-.652-.375h-6.794l6.68-11.438a.684.684 0 0 0 0-.75.798.798 0 0 0-.635-.342H9.919a.766.766 0 0 0-.668.391L.566 18.641a.684.684 0 0 0 0 .716c.12.223.368.347.62.31h6.843L3.14 34.087a.684.684 0 0 0 .326.83.8.8 0 0 0 .39.082.896.896 0 0 0 .587-.244l15.968-21.068a.685.685 0 0 0 0-.782Z"/></svg>
